icons/assets/Group 313 (1).svg

<svg width="76" height="76" viewBox="0 0 76 76" fill="none" xmlns="http://www.w3.org/2000/svg">
<g clip-path="url(#clip0_662_5673)">
<path d="M11.75 49.1556L42.0609 49.1556L26.9054 75.4056L11.75 49.1556Z" fill="#A8EFCF" fill-opacity="0.5"/>
<path fill-rule="evenodd" clip-rule="evenodd" d="M32.6579 27.502C32.6579 29.2025 31.2803 30.581 29.5789 30.581C27.8785 30.581 26.5 29.2025 26.5 27.502C26.5 25.8016 27.8785 24.4231 29.5789 24.4231C31.2803 24.4231 32.6579 25.8016 32.6579 27.502Z" fill="#0A3B70"/>
<path fill-rule="evenodd" clip-rule="evenodd" d="M41.3669 48.5265C41.3669 50.2269 39.9884 51.6054 38.2879 51.6054C36.5866 51.6054 35.209 50.2269 35.209 48.5265C35.209 46.8251 36.5866 45.4475 38.2879 45.4475C39.9884 45.4475 41.3669 46.8251 41.3669 48.5265Z" fill="#0A3B70"/>
<path fill-rule="evenodd" clip-rule="evenodd" d="M47.5251 36.2108C47.5251 37.9112 46.1466 39.2897 44.4461 39.2897C42.7448 39.2897 41.3672 37.9112 41.3672 36.2108C41.3672 34.5094 42.7448 33.1318 44.4461 33.1318C46.1466 33.1318 47.5251 34.5094 47.5251 36.2108Z" fill="#0A3B70"/>
<path fill-rule="evenodd" clip-rule="evenodd" d="M15.5955 25.2801C15.0774 25.2801 14.5724 25.0188 14.2821 24.5455C13.837 23.8207 14.0657 22.8741 14.7897 22.429C21.8739 18.0868 29.9988 15.7908 38.2882 15.7908C46.5768 15.7908 54.7025 18.085 61.7868 22.4272C62.5107 22.8706 62.7395 23.8198 62.2943 24.5438C61.8519 25.2669 60.9053 25.4956 60.1778 25.0514C53.5774 21.0083 46.0076 18.8697 38.2882 18.8697C30.5671 18.8697 22.9991 21.0083 16.3987 25.0531C16.148 25.2071 15.87 25.2801 15.5955 25.2801Z" fill="#0A3B70"/>
<mask id="mask0_662_5673" style="mask-type:alpha" maskUnits="userSpaceOnUse" x="10" y="8" width="56" height="59">
<path d="M10.5781 8.5H66V67H10.5781V8.5Z" fill="white"/>
</mask>
<g mask="url(#mask0_662_5673)">
<path fill-rule="evenodd" clip-rule="evenodd" d="M14.1844 17.9216L38.289 62.2391L62.3945 17.9216C55.0473 13.7676 46.7464 11.5789 38.289 11.5789C29.8325 11.5789 21.5299 13.7676 14.1844 17.9216ZM38.289 67C37.726 67 37.207 66.6912 36.936 66.196L10.765 18.0834C10.3726 17.3612 10.6172 16.4578 11.3201 16.0311C19.4547 11.1039 28.7803 8.5 38.289 8.5C47.7968 8.5 57.1225 11.1039 65.2571 16.0311C65.9608 16.4578 66.2063 17.3612 65.813 18.0834L39.642 66.196C39.3719 66.6912 38.8529 67 38.289 67Z" fill="#0A3B70"/>
</g>
</g>
<defs>
<clipPath id="clip0_662_5673">
<rect width="76" height="76" fill="white"/>
</clipPath>
</defs>
</svg>

<?xml version="1.0" encoding="utf-8"?>
<!-- Generator: Adobe Illustrator 26.0.1, SVG Export Plug-In . SVG Version: 6.00 Build 0)  -->
<svg version="1.1" id="Layer_1" xmlns="http://www.w3.org/2000/svg" xmlns:xlink="http://www.w3.org/1999/xlink" x="0px" y="0px"
	 viewBox="0 0 76 76" style="enable-background:new 0 0 76 76;" xml:space="preserve">
<style type="text/css">
	.st0{clip-path:url(#SVGID_00000096781941712065107980000006203664837233826433_);}
	.st1{fill:#D3F6E6;}
	.st2{fill-rule:evenodd;clip-rule:evenodd;fill:#0A3B70;}
	.st3{fill:#FFFFFF;filter:url(#Adobe_OpacityMaskFilter);}
	.st4{mask:url(#mask0_662_5673_00000011729027178899732520000008274117305435303083_);}
</style>
<g>
	<defs>
		<rect id="SVGID_1_" width="76" height="76"/>
	</defs>
	<clipPath id="SVGID_00000104703895990504412300000018207405923179321009_">
		<use xlink:href="#SVGID_1_"  style="overflow:visible;"/>
	</clipPath>
	<g style="clip-path:url(#SVGID_00000104703895990504412300000018207405923179321009_);">
		<polygon class="st1" points="11.8,49.2 26.9,75.4 42.1,49.2 		"/>
		<path class="st2" d="M32.7,27.5c0,1.7-1.4,3.1-3.1,3.1c-1.7,0-3.1-1.4-3.1-3.1c0-1.7,1.4-3.1,3.1-3.1
			C31.3,24.4,32.7,25.8,32.7,27.5z"/>
		<path class="st2" d="M41.4,48.5c0,1.7-1.4,3.1-3.1,3.1c-1.7,0-3.1-1.4-3.1-3.1c0-1.7,1.4-3.1,3.1-3.1C40,45.4,41.4,46.8,41.4,48.5
			z"/>
		<path class="st2" d="M47.5,36.2c0,1.7-1.4,3.1-3.1,3.1c-1.7,0-3.1-1.4-3.1-3.1c0-1.7,1.4-3.1,3.1-3.1
			C46.1,33.1,47.5,34.5,47.5,36.2z"/>
		<path class="st2" d="M15.6,25.3c-0.5,0-1-0.3-1.3-0.7c-0.4-0.7-0.2-1.7,0.5-2.1c7.1-4.3,15.2-6.6,23.5-6.6
			c8.3,0,16.4,2.3,23.5,6.6c0.7,0.4,1,1.4,0.5,2.1c-0.4,0.7-1.4,1-2.1,0.5c-6.6-4-14.2-6.2-21.9-6.2c-7.7,0-15.3,2.1-21.9,6.2
			C16.1,25.2,15.9,25.3,15.6,25.3z"/>
		<defs>
			<filter id="Adobe_OpacityMaskFilter" filterUnits="userSpaceOnUse" x="10.6" y="8.5" width="55.4" height="58.5">
				<feColorMatrix  type="matrix" values="1 0 0 0 0  0 1 0 0 0  0 0 1 0 0  0 0 0 1 0"/>
			</filter>
		</defs>
		
			<mask maskUnits="userSpaceOnUse" x="10.6" y="8.5" width="55.4" height="58.5" id="mask0_662_5673_00000011729027178899732520000008274117305435303083_">
			<path class="st3" d="M10.6,8.5H66V67H10.6V8.5z"/>
		</mask>
		<g class="st4">
			<path class="st2" d="M14.2,17.9l24.1,44.3l24.1-44.3c-7.3-4.2-15.6-6.3-24.1-6.3C29.8,11.6,21.5,13.8,14.2,17.9z M38.3,67
				c-0.6,0-1.1-0.3-1.4-0.8L10.8,18.1c-0.4-0.7-0.1-1.6,0.6-2.1c8.1-4.9,17.5-7.5,27-7.5c9.5,0,18.8,2.6,27,7.5
				c0.7,0.4,0.9,1.3,0.6,2.1L39.6,66.2C39.4,66.7,38.9,67,38.3,67z"/>
		</g>
	</g>
</g>
</svg>
